X:1608
T:G Doubling Scale
C: Kevin Fraser
B: https://bagpipes.ksfraser.com
O: Kevin Fraser
Z:Kevin Fraser
Q:1/4=78
K:HP
M:4/4
L:1/4
%%MIDI gracedivider 4
%%MIDI gchord
%%MIDI beatstring 
[| G {gGd}G A {gGd}G | B {gGd}G c {gGd}G | d {gGd}G e {gGd}G | f {gGd}G g {aGd}G | 
w: em hemtem en hemtem | o hemtem o hemtem   | a hemtem e hemtem | ve hemtem di hemtem |
w: |||- thumb gracenote ^|
   a {Gd}G  a {Gd}G  | g {aGd}G f {gGd}G | e {gGd}G d {gGd}G | c {gGd}G B {gGd}G | A {gGd}G G {gGd}G |]
w: I emtem  I emtem  |  di hemtem ve hemtem | e hemtem a hemtem | o hemtem o hemtem | en hemtem em hemtem
W:
W: Note the High A gracenote from High G for this doubling!
W: Note the Half Doubling from High A

